X:1
T:Fairy, The
T:Fairy, The
L:1/8
M:4/4
K:G
V:1 treble 
V:1
 B2 BA GBdB | cBAG FGAc | BG G2 dcAg | fgaf gfed | dBBA GBdB | cBAG FGAc | BG G2 cBAG |1 %7
 FGAF G3 A :|2 FGAF G2 Bc |: d2 dg e2 ed | cA A2 d2 dc | BG G2 dcAg | fgaf gfed | dBdg e2 ed | %14

